src/actions/16/formula.svg

<svg xmlns="http://www.w3.org/2000/svg" viewBox="0 0 16 16">
  <defs id="defs3051">
    <style type="text/css" id="current-color-scheme">
      .ColorScheme-Text {
        color:#2e3440;
      }
      </style>
  </defs>
 <path style="fill:currentColor;fill-opacity:1;stroke:none" 
       d="M 9.1484375 2 L 6.6289062 11.408203 L 4.6621094 8 L 4.3691406 8 L 3.5058594 8 L 2 8 L 2 9 L 4.0839844 9 L 6.9707031 14 L 9.9179688 3 L 14 3 L 14 2 L 10.185547 2 L 9.5292969 2 L 9.1484375 2 z "
     class="ColorScheme-Text"
     />
</svg>

<svg viewBox="0 0 16 16" xmlns="http://www.w3.org/2000/svg">
 <defs>
  <style type="text/css">.ColorScheme-Text {
        color:#2e3440;
      }</style>
 </defs>
 <path class="ColorScheme-Text" d="m9.1484 2-2.5195 9.4082-1.9668-3.4082h-0.29297-0.86328-1.5059v1h2.084l2.8867 5 2.9473-11h4.082v-1h-3.8145-0.65625-0.38086z" fill="currentColor"/>
</svg>
